storage/app/icons/phosphoricons/light/rows-light.svg

<svg xmlns="http://www.w3.org/2000/svg" fill="currentColor" viewBox="0 0 256 256"><path d="M208 138H48a14 14 0 0 0-14 14v40a14 14 0 0 0 14 14h160a14 14 0 0 0 14-14v-40a14 14 0 0 0-14-14m2 54a2 2 0 0 1-2 2H48a2 2 0 0 1-2-2v-40a2 2 0 0 1 2-2h160a2 2 0 0 1 2 2Zm-2-142H48a14 14 0 0 0-14 14v40a14 14 0 0 0 14 14h160a14 14 0 0 0 14-14V64a14 14 0 0 0-14-14m2 54a2 2 0 0 1-2 2H48a2 2 0 0 1-2-2V64a2 2 0 0 1 2-2h160a2 2 0 0 1 2 2Z"/></svg>

<svg xmlns="http://www.w3.org/2000/svg" viewBox="0 0 256 256" fill="currentColor"><path d="M208,138H48a14,14,0,0,0-14,14v40a14,14,0,0,0,14,14H208a14,14,0,0,0,14-14V152A14,14,0,0,0,208,138Zm2,54a2,2,0,0,1-2,2H48a2,2,0,0,1-2-2V152a2,2,0,0,1,2-2H208a2,2,0,0,1,2,2ZM208,50H48A14,14,0,0,0,34,64v40a14,14,0,0,0,14,14H208a14,14,0,0,0,14-14V64A14,14,0,0,0,208,50Zm2,54a2,2,0,0,1-2,2H48a2,2,0,0,1-2-2V64a2,2,0,0,1,2-2H208a2,2,0,0,1,2,2Z"/></svg>
